X:1
T:Title
%%score { ( 1 3 ) | ( 2 4 ) }
L:1/8
Q:1/4=100
M:4/4
K:Bb
V:1 treble nm="Grand Piano"
V:3 treble 
V:2 bass 
V:4 bass 
V:1
 [DF]2 [DF]>[EG] [DF]2 [B,D][CE] | [DF]2 [DB]2 [DB]4 | G2 GG [GB]2 [FA]>[EG] | [EG]2 [DF]2 [DF]4 | %4
w: C.~P.~Jones * * * * *||||
 [DF]2 [DF]>[EG] [DF]2 [B,D][CE] | [DF]2 [DB]2 [DB]4 | [Fd]2 [Fc][FB] [GB][EG][Gc][Gc] | %7
w: |||
 [FB]2 [EA]2 [DB]4 | z4 [F=d]4[K:bass] | z4 [DB]4 | c2 c>B c2 B>c | z4 c4 | z4 [F=d]4[K:bass] | %13
w: ||||||
 z4 [DB]4 | G2 [GB][EG] [DF]<[DF] [FB][Gc] | [Fd]2 [Ec]>[DB] [DB]4 |] %16
w: |||
V:2
 [B,,B,]2 [B,,B,]>[B,,B,] [B,,B,]2 [B,,F,][B,,F,] | [B,,B,]2 [B,,B,]2 [B,,B,]4 | %2
 [E,B,E]2 [E,B,E][E,B,E] [E,E]2 [E,B,]>[E,B,] | [E,B,]2 [B,,B,]2 [B,,B,]4 | %4
 [B,,B,]2 [B,,B,]>[B,,B,] [B,,B,]2 [B,,F,][B,,F,] | [B,,F,]2 [B,,B,]2 [B,,B,]4 | %6
 [B,,B,]2 [C,A,][D,B,] [E,B,][E,B,][E,C][E,C] | [F,D]2 [F,C]2 [B,,B,]4 | %8
 [B,,B,]2 [B,,B,]>[B,,B,] [B,,B,]B,,B,,B,, | [B,,F,]2 [B,,G,]>[B,,G,] [B,,F,]B,,/B,,/ B,,B,, | %10
 [F,A,E]2 [F,A,E]>[F,A,E] [F,A,E]2 [F,B,D]>[F,A,D] | z4[K:bass] F4 | %12
 [B,,B,]2 [B,,B,]>[B,,B,] [B,,B,]B,,B,,B,, | [B,,F,]2 [B,,G,]>[B,,G,] [B,,F,]B,,/B,,/ B,,B,, | %14
 [E,B,E]2 [E,B,][E,B,] [B,,B,]<[B,,B,] [D,B,][E,B,] | [F,B,]2 [F,A,]>[B,,B,] [B,,B,]4 |] %16
V:3
 x8 | x8 | x8 | x8 | x8 | x8 | x8 | x8 | [Fd]2 [Fd]>[=E_d] z[K:bass] B,B,F, | %9
 [DB]2 [EB]>[EB] z B,/B,/ B,B, | x8 | d2 d>d z A,A,A, | [Fd]2 [Fd]>[=E_d] z[K:bass] B,B,F, | %13
 [DB]2 [EB]>[EB] z B,/B,/ B,B, | x8 | x8 |] %16
V:4
 x8 | x8 | x8 | x8 | x8 | x8 | x8 | x8 | x8 | x8 | x8 | [B,F]2 [B,F]>[B,F][K:bass] [F,A,]F,F,F, | %12
 x8 | x8 | x8 | x8 |] %16

